svgs/thin/tablet-rugged.svg

<svg xmlns="http://www.w3.org/2000/svg" viewBox="0 0 448 512"><!--! Font Awesome Pro 6.3.0 by @fontawesome - https://fontawesome.com License - https://fontawesome.com/license (Commercial License) Copyright 2023 Fonticons, Inc. --><path d="M320 64H128C110.4 64 96 78.4 96 96v320c0 17.6 14.4 32 32 32h192c17.6 0 32-14.4 32-32V96C352 78.4 337.6 64 320 64zM336 416c0 8.822-7.178 16-16 16H128c-8.822 0-16-7.178-16-16V96c0-8.822 7.178-16 16-16h192c8.822 0 16 7.178 16 16V416zM439.3 164.4c5.375-2.625 8.75-8.125 8.75-14.25v-76.25c0-6.125-3.375-11.63-8.75-14.25l-23.25-11.62c0-26.5-21.5-48-47.1-48h-288c-26.5 0-48 21.5-48 48L8.799 59.63C3.424 62.25 .0492 67.75 .0492 73.88v76.25c0 6.125 3.375 11.63 8.75 14.25l23.25 11.62v16L8.799 203.6C3.424 206.3 .0492 211.8 .0492 217.9v76.25c0 6.125 3.375 11.62 8.75 14.25l23.25 11.62v16l-23.25 11.62C3.424 350.3 .0492 355.8 .0492 361.9v76.25c0 6.125 3.375 11.62 8.75 14.25l23.25 11.62c0 26.5 21.5 48 48 48h288c26.5 0 47.1-21.5 47.1-48l23.25-11.62c5.375-2.625 8.75-8.125 8.75-14.25v-76.25c0-6.125-3.375-11.62-8.75-14.25l-23.25-11.62v-16l23.25-11.62c5.375-2.625 8.75-8.125 8.75-14.25V217.9c0-6.125-3.375-11.63-8.75-14.25l-23.25-11.62v-16L439.3 164.4zM432 217.9l.0938 76.19L400 310.1v35.78l32 15.99l.0938 76.19L400 454.1V464c0 17.64-14.36 32-32 32h-288c-17.64 0-32-14.36-32-32v-9.889l-32-15.99l-.0938-76.19L48 345.9V310.1l-32-15.99L15.91 217.9L48 201.9V166.1l-32-15.99L15.91 73.94L48 57.89V48c0-17.64 14.36-32 32-32h288c17.64 0 32 14.36 32 32v9.889l32 15.99l.0938 76.19L400 166.1v35.78L432 217.9z"/></svg>

<svg xmlns="http://www.w3.org/2000/svg" viewBox="0 0 448 512"><!-- Font Awesome Pro 6.0.0-alpha2 by @fontawesome - https://fontawesome.com License - https://fontawesome.com/license (Commercial License) --><path d="M320 64H128C110.4 64 96 78.4 96 96V416C96 433.6 110.4 448 128 448H320C337.6 448 352 433.6 352 416V96C352 78.4 337.6 64 320 64ZM336 416C336 424.822 328.822 432 320 432H128C119.178 432 112 424.822 112 416V96C112 87.178 119.178 80 128 80H320C328.822 80 336 87.178 336 96V416ZM439.25 164.375C444.625 161.75 448 156.25 448 150.125V73.875C448 67.75 444.625 62.25 439.25 59.625L416 48C416 21.5 394.5 0 368 0H80C53.5 0 32 21.5 32 48L8.75 59.625C3.375 62.25 0 67.75 0 73.875V150.125C0 156.25 3.375 161.75 8.75 164.375L32 176V192L8.75 203.625C3.375 206.25 0 211.75 0 217.875V294.125C0 300.25 3.375 305.75 8.75 308.375L32 320V336L8.75 347.625C3.375 350.25 0 355.75 0 361.875V438.125C0 444.25 3.375 449.75 8.75 452.375L32 464C32 490.5 53.5 512 80 512H368C394.5 512 416 490.5 416 464L439.25 452.375C444.625 449.75 448 444.25 448 438.125V361.875C448 355.75 444.625 350.25 439.25 347.625L416 336V320L439.25 308.375C444.625 305.75 448 300.25 448 294.125V217.875C448 211.75 444.625 206.25 439.25 203.625L416 192V176L439.25 164.375ZM432 217.875L432.094 294.064L400 310.111V345.889L432 361.875L432.094 438.064L400 454.111V464C400 481.645 385.645 496 368 496H80C62.355 496 48 481.645 48 464V454.111L16 438.125L15.906 361.936L48 345.889V310.111L16 294.125L15.906 217.936L48 201.889V166.111L16 150.125L15.906 73.936L48 57.889V48C48 30.355 62.355 16 80 16H368C385.645 16 400 30.355 400 48V57.889L432 73.875L432.094 150.064L400 166.111V201.889L432 217.875Z"/></svg>
